X:1
T:Chippy Get Your Hair Cut
L:1/4
M:4/4
I:linebreak $
K:D
V:1 treble 
V:1
|: A | d/f/e/d/ B A | B A F A | d/f/e/d/ B A | B c d ::$ d f a3/2 a/ | b a f e | d/e/f/g/ a a | %8
 b a f f |$ d f a3/2 a/ | b a f e | d/f/e/d/ B A | B c d d :| %13
